build/images/icons/pdf.svg

<svg width="81" height="71" viewBox="0 0 81 71" fill="none" xmlns="http://www.w3.org/2000/svg">
<g>
<path d="M7 6L29 19V56H0V0H39L47 7V56H42V62H47L39 71L31 62H37" stroke="#223D72" stroke-width="2"/>
<rect x="41" y="28" width="15" height="13" rx="6.5" fill="white"/>
<path d="M40.719 36.84H42.168C44.13 36.84 44.796 35.796 44.796 34.77C44.796 34.221 44.652 33.789 44.292 33.366C43.923 32.943 43.194 32.7 42.177 32.7H39.63V39H40.719V36.84ZM42.213 33.717C43.176 33.717 43.662 34.068 43.662 34.761C43.662 35.472 43.158 35.823 42.15 35.823H40.719V33.717H42.213ZM47.5836 39C48.7986 39 49.7166 38.703 50.3286 38.1C50.9406 37.506 51.2466 36.732 51.2466 35.769C51.2466 34.905 51.0036 34.203 50.4636 33.618C49.9236 33.042 48.9606 32.7 47.7006 32.7H45.7296V39H47.5836ZM47.6826 33.726C49.3026 33.726 50.1126 34.41 50.1126 35.769C50.1126 37.137 49.3296 37.974 47.6646 37.974H46.8186V33.726H47.6826ZM53.261 39V36.534H56.573V35.508H53.261V33.726H56.807V32.7H52.172V39H53.261Z" fill="#223D72"/>
</g>
</svg>

<svg width="81" height="71" fill="none" xmlns="http://www.w3.org/2000/svg"><path d="M7 6l22 13v37H0V0h39l8 7v49h-5v6h5l-8 9-8-9h6" stroke="#223D72" stroke-width="2"/><rect x="41" y="28" width="15" height="13" rx="6.5" fill="#fff"/><path d="M40.719 36.84h1.449c1.962 0 2.628-1.044 2.628-2.07 0-.549-.144-.981-.504-1.404-.369-.423-1.098-.666-2.115-.666H39.63V39h1.089v-2.16zm1.494-3.123c.963 0 1.449.351 1.449 1.044 0 .711-.504 1.062-1.512 1.062h-1.431v-2.106h1.494zM47.583 39c1.216 0 2.134-.297 2.746-.9.612-.594.918-1.368.918-2.331 0-.864-.243-1.566-.783-2.151-.54-.576-1.503-.918-2.763-.918H45.73V39h1.854zm.1-5.274c1.62 0 2.43.684 2.43 2.043 0 1.368-.783 2.205-2.448 2.205h-.846v-4.248h.864zM53.26 39v-2.466h3.312v-1.026H53.26v-1.782h3.546V32.7h-4.635V39h1.089z" fill="#223D72"/></svg>
